X: 043
T: the Sword Knott
B: 204 Favourite Country Dances
N: Published by Straight & Skillern, London ca.1775
F: http://imslp.org/wiki/204_Favourite_Country_Dances_(Various) p.22 #43
Z: 2014 John Chambers <jc:trillian.mit.edu>
M: C
L: 1/8
K: G
% - - - - - - - - - - - - - - - - - - - - - - - - -
|:\
g2dB cecA | BdBG FAD2 |\
BdgB ceac | BAGF G2G,2 :|\
|:\
BdBG cecA | defd d^cBA |
fafd  gbge | agfe d2D2 |\
g2dB cecA | BdBG FADc |\
BdgB ceac | BAGF G2G,2 :|
% - - - - - - - - - - - - - - - - - - - - - - - - -
%%begintext align
%% The 1st Cu. foot it & cast off 2 Cu. .| foot it &
%% cast up again :| cross over 2 Cu. lead up to the
%% top & cast off .|. hands round 4 at bottom
%% Right & Left at top :|:
%%endtext

%%sep 1 1 500
%%sep 1 1 500
